apps/wow-docs/public/component/dropdown/dropdown-guide-5.svg

<svg xmlns="http://www.w3.org/2000/svg" width="908" height="230" fill="none"><path fill="#fff" d="M.5 0h907v230H.5z"/><path stroke="#6B6B6B" stroke-width="1.2" d="M479.5 32v-8m-74 8v-8m0 4h74m0 42v-8"/><path fill="#6B6B6B" d="M490.672 69.964q.882 0 1.428-.504.56-.518.56-1.33t-.56-1.316q-.546-.518-1.428-.518-.896 0-1.456.518-.56.504-.56 1.316t.56 1.33q.56.504 1.456.504m-3.472-1.806q0-.686.476-1.372a3.46 3.46 0 0 1 1.218-1.106 3.5 3.5 0 0 1-1.008-1.036q-.392-.615-.392-1.162a2.6 2.6 0 0 1 .406-1.442q.406-.644 1.12-.994.728-.364 1.652-.364t1.638.364q.728.35 1.134.994.406.63.406 1.442 0 .56-.392 1.176t-1.008 1.022q.742.42 1.204 1.106t.462 1.372q0 .882-.434 1.582a3 3 0 0 1-1.218 1.078q-.784.378-1.792.378t-1.806-.378a3.1 3.1 0 0 1-1.232-1.078 2.94 2.94 0 0 1-.434-1.582m1.75-4.676q0 .7.476 1.134t1.246.434q.756 0 1.232-.434.49-.449.49-1.134t-.49-1.12q-.476-.448-1.232-.448-.77 0-1.246.434t-.476 1.134m10.483 6.482q.938 0 1.526-.686.588-.7.588-1.82 0-1.106-.588-1.792t-1.526-.686a1.93 1.93 0 0 0-1.092.336 2.37 2.37 0 0 0-.798.91 2.6 2.6 0 0 0-.294 1.232q0 .685.294 1.26.294.574.798.91t1.092.336m-3.654-6.188h1.456v1.26q.378-.63 1.05-.938.672-.322 1.232-.322 1.022 0 1.806.476.798.462 1.232 1.302.448.825.448 1.904t-.448 1.932q-.434.84-1.232 1.316-.784.462-1.806.462-.56 0-1.232-.322a2.5 2.5 0 0 1-1.05-.966v4.354h-1.456zm12.367 3.668 2.702 3.654h-1.806l-1.75-2.478-1.736 2.478h-1.806l2.66-3.654-2.716-3.668h1.82l1.778 2.548 1.764-2.548h1.82z"/><path fill="red" fill-opacity=".1" d="M406 70v-8h74v8z"/><rect width="73" height="29" x="406.5" y="32.5" fill="#F7F7F7" rx="14.5"/><rect width="73" height="29" x="406.5" y="32.5" stroke="#121212" rx="14.5"/><path fill="#121212" d="M424.887 52.21q-1.483 0-2.646-.672a4.8 4.8 0 0 1-1.806-1.862q-.644-1.204-.644-2.73t.644-2.716a4.7 4.7 0 0 1 1.792-1.876q1.162-.672 2.632-.672 1.05 0 1.974.406.938.406 1.638 1.134l-.952.938a3.2 3.2 0 0 0-1.176-.882 3.5 3.5 0 0 0-1.47-.322q-1.064 0-1.89.504a3.4 3.4 0 0 0-1.274 1.4q-.448.896-.448 2.086 0 1.177.448 2.086a3.5 3.5 0 0 0 1.274 1.4q.826.504 1.89.504.798 0 1.456-.308.672-.323 1.134-.854l1.008.896a5.2 5.2 0 0 1-1.624 1.148 4.55 4.55 0 0 1-1.96.392m10.32-4.018q0-.938-.448-1.512a1.41 1.41 0 0 0-1.176-.588q-.532 0-.98.308-.449.307-.714.826a2.56 2.56 0 0 0-.252 1.134v3.738h-1.456V41.794h1.456v4.144q.322-.504.868-.784a2.3 2.3 0 0 1 1.092-.294q.882 0 1.582.406a2.74 2.74 0 0 1 1.092 1.12q.392.714.392 1.638v4.074h-1.456zm4.794-3.374v7.28h-1.456v-7.28zm-1.554-2.38q0-.364.224-.588a.82.82 0 0 1 .602-.238q.365 0 .588.238.238.224.238.588 0 .35-.238.588a.77.77 0 0 1-.588.238.85.85 0 0 1-.602-.224.85.85 0 0 1-.224-.602m7.208 8.526q.938 0 1.526-.686.588-.7.588-1.82 0-1.106-.588-1.792t-1.526-.686a1.93 1.93 0 0 0-1.092.336 2.37 2.37 0 0 0-.798.91 2.6 2.6 0 0 0-.294 1.232q0 .686.294 1.26t.798.91 1.092.336m-3.654-6.188h1.456v1.26q.378-.63 1.05-.938.671-.322 1.232-.322 1.022 0 1.806.476.797.462 1.232 1.302.447.825.448 1.904 0 1.079-.448 1.932-.435.84-1.232 1.316-.785.462-1.806.462-.56 0-1.232-.322a2.5 2.5 0 0 1-1.05-.966v4.354h-1.456z"/><path stroke="#121212" stroke-linejoin="bevel" stroke-width="1.2" d="m466 48-5-4-5 4"/><g clip-path="url(#a)"><rect width="74" height="140" x="406" y="70" fill="#fff" rx="4"/><path fill="#121212" d="M423.552 82.632H420v10.432h-1.408V82.632h-3.568v-1.248h8.528zm6.191 5.76q-.112-1.024-.672-1.712-.544-.704-1.648-.704-1.008 0-1.728.688-.704.672-.848 1.744zm-6.288.544q0-1.215.496-2.16.495-.945 1.392-1.472.895-.528 2.032-.528 2.384 0 3.408 2.24.336.896.336 1.904a5 5 0 0 1-.032.624h-6.24q.159 1.04.864 1.696.72.656 1.68.656.768 0 1.264-.24.512-.24.704-.464.207-.24.368-.48l1.12.576q-.369.752-1.264 1.28-.88.528-2.208.528-1.137 0-2.032-.528a3.6 3.6 0 0 1-1.392-1.472q-.496-.945-.496-2.16m13.211 0 3.088 4.128h-1.744l-2.128-2.944-2.096 2.944h-1.76l3.056-4.128-3.088-4.144h1.776l2.112 2.992 2.128-2.992h1.76zm7.565 4.16q-1.023 0-1.68-.672-.655-.672-.688-1.728v-4.624h-1.376V84.84h1.376v-2.192h1.408v2.192h1.776v1.232h-1.776V90.6q0 .48.272.832a.84.84 0 0 0 .688.352q.24 0 .432-.032t.384-.08l.256 1.296a5.3 5.3 0 0 1-1.072.128m-20.679 19.536H420v10.432h-1.408v-10.432h-3.568v-1.248h8.528zm6.191 5.76q-.112-1.024-.672-1.712-.544-.704-1.648-.704-1.008 0-1.728.688-.704.672-.848 1.744zm-6.288.544q0-1.216.496-2.16.495-.944 1.392-1.472.895-.528 2.032-.528 2.384 0 3.408 2.24.336.896.336 1.904a5 5 0 0 1-.032.624h-6.24q.159 1.04.864 1.696.72.656 1.68.656.768 0 1.264-.24.512-.24.704-.464.207-.24.368-.48l1.12.576q-.369.752-1.264 1.28-.88.528-2.208.528-1.137 0-2.032-.528a3.63 3.63 0 0 1-1.392-1.472q-.496-.944-.496-2.16m13.211 0 3.088 4.128h-1.744l-2.128-2.944-2.096 2.944h-1.76l3.056-4.128-3.088-4.144h1.776l2.112 2.992 2.128-2.992h1.76zm7.565 4.16q-1.023 0-1.68-.672-.655-.672-.688-1.728v-4.624h-1.376v-1.232h1.376v-2.192h1.408v2.192h1.776v1.232h-1.776v4.528q0 .48.272.832a.84.84 0 0 0 .688.352q.24 0 .432-.032t.384-.08l.256 1.296a5.3 5.3 0 0 1-1.072.128m-20.679 19.536H420v10.432h-1.408v-10.432h-3.568v-1.248h8.528zm6.191 5.76q-.112-1.024-.672-1.712-.544-.704-1.648-.704-1.008 0-1.728.688-.704.672-.848 1.744zm-6.288.544q0-1.217.496-2.16.495-.944 1.392-1.472.895-.528 2.032-.528 2.384 0 3.408 2.24.336.896.336 1.904a5 5 0 0 1-.032.624h-6.24q.159 1.04.864 1.696.72.656 1.68.656.768 0 1.264-.24.512-.24.704-.464.207-.24.368-.48l1.12.576q-.369.752-1.264 1.28-.88.528-2.208.528-1.137 0-2.032-.528a3.63 3.63 0 0 1-1.392-1.472q-.496-.943-.496-2.16m13.211 0 3.088 4.128h-1.744l-2.128-2.944-2.096 2.944h-1.76l3.056-4.128-3.088-4.144h1.776l2.112 2.992 2.128-2.992h1.76zm7.565 4.16q-1.023 0-1.68-.672-.655-.672-.688-1.728v-4.624h-1.376v-1.232h1.376v-2.192h1.408v2.192h1.776v1.232h-1.776v4.528q0 .48.272.832a.84.84 0 0 0 .688.352q.24 0 .432-.032t.384-.08l.256 1.296a5.3 5.3 0 0 1-1.072.128m-20.679 19.536H420v10.432h-1.408v-10.432h-3.568v-1.248h8.528zm6.191 5.76q-.112-1.024-.672-1.712-.544-.704-1.648-.704-1.008 0-1.728.688-.704.672-.848 1.744zm-6.288.544q0-1.217.496-2.16.495-.944 1.392-1.472.895-.528 2.032-.528 2.384 0 3.408 2.24.336.896.336 1.904a5 5 0 0 1-.032.624h-6.24q.159 1.04.864 1.696.72.656 1.68.656.768 0 1.264-.24.512-.24.704-.464.207-.24.368-.48l1.12.576q-.369.752-1.264 1.28-.88.528-2.208.528-1.137 0-2.032-.528a3.63 3.63 0 0 1-1.392-1.472q-.496-.944-.496-2.16m13.211 0 3.088 4.128h-1.744l-2.128-2.944-2.096 2.944h-1.76l3.056-4.128-3.088-4.144h1.776l2.112 2.992 2.128-2.992h1.76zm7.565 4.16q-1.023 0-1.68-.672-.655-.672-.688-1.728v-4.624h-1.376v-1.232h1.376v-2.192h1.408v2.192h1.776v1.232h-1.776v4.528q0 .48.272.832a.84.84 0 0 0 .688.352q.24 0 .432-.032t.384-.08l.256 1.296a5.3 5.3 0 0 1-1.072.128m-20.679 19.536H420v10.432h-1.408v-10.432h-3.568v-1.248h8.528zm6.191 5.76q-.112-1.024-.672-1.712-.544-.704-1.648-.704-1.008 0-1.728.688-.704.672-.848 1.744zm-6.288.544q0-1.217.496-2.16.495-.944 1.392-1.472.895-.528 2.032-.528 2.384 0 3.408 2.24.336.896.336 1.904a5 5 0 0 1-.032.624h-6.24q.159 1.04.864 1.696.72.656 1.68.656.768 0 1.264-.24.512-.24.704-.464.207-.24.368-.48l1.12.576q-.369.752-1.264 1.28-.88.528-2.208.528-1.137 0-2.032-.528a3.63 3.63 0 0 1-1.392-1.472q-.496-.944-.496-2.16m13.211 0 3.088 4.128h-1.744l-2.128-2.944-2.096 2.944h-1.76l3.056-4.128-3.088-4.144h1.776l2.112 2.992 2.128-2.992h1.76zm7.565 4.16q-1.023 0-1.68-.672-.655-.672-.688-1.728v-4.624h-1.376v-1.232h1.376v-2.192h1.408v2.192h1.776v1.232h-1.776v4.528q0 .48.272.832a.84.84 0 0 0 .688.352q.24 0 .432-.032t.384-.08l.256 1.296a5.3 5.3 0 0 1-1.072.128"/><path fill="#C2C2C2" d="M476 75a1 1 0 0 1 2 0v63a1 1 0 0 1-2 0z"/></g><rect width="73" height="139" x="406.5" y="70.5" stroke="#368FF7" rx="3.5"/><defs><clipPath id="a"><rect width="74" height="140" x="406" y="70" fill="#fff" rx="4"/></clipPath></defs></svg>

<svg width="908" height="230" viewBox="0 0 908 230" fill="none" xmlns="http://www.w3.org/2000/svg">
<rect width="907" height="230" transform="translate(0.5)" fill="white"/>
<path d="M479.5 32L479.5 24" stroke="#6B6B6B" stroke-width="1.2"/>
<path d="M405.5 32L405.5 24" stroke="#6B6B6B" stroke-width="1.2"/>
<path d="M405.5 28L479.5 28" stroke="#6B6B6B" stroke-width="1.2"/>
<path d="M479.5 70L479.5 62" stroke="#6B6B6B" stroke-width="1.2"/>
<path d="M490.672 69.964C491.26 69.964 491.736 69.796 492.1 69.46C492.473 69.1147 492.66 68.6713 492.66 68.13C492.66 67.5887 492.473 67.15 492.1 66.814C491.736 66.4687 491.26 66.296 490.672 66.296C490.075 66.296 489.589 66.4687 489.216 66.814C488.843 67.15 488.656 67.5887 488.656 68.13C488.656 68.6713 488.843 69.1147 489.216 69.46C489.589 69.796 490.075 69.964 490.672 69.964ZM487.2 68.158C487.2 67.7007 487.359 67.2433 487.676 66.786C487.993 66.3193 488.399 65.9507 488.894 65.68C488.483 65.4 488.147 65.0547 487.886 64.644C487.625 64.2333 487.494 63.846 487.494 63.482C487.494 62.9407 487.629 62.46 487.9 62.04C488.171 61.6107 488.544 61.2793 489.02 61.046C489.505 60.8033 490.056 60.682 490.672 60.682C491.288 60.682 491.834 60.8033 492.31 61.046C492.795 61.2793 493.173 61.6107 493.444 62.04C493.715 62.46 493.85 62.9407 493.85 63.482C493.85 63.8553 493.719 64.2473 493.458 64.658C493.197 65.0687 492.861 65.4093 492.45 65.68C492.945 65.96 493.346 66.3287 493.654 66.786C493.962 67.2433 494.116 67.7007 494.116 68.158C494.116 68.746 493.971 69.2733 493.682 69.74C493.393 70.1973 492.987 70.5567 492.464 70.818C491.941 71.07 491.344 71.196 490.672 71.196C490 71.196 489.398 71.07 488.866 70.818C488.343 70.5567 487.933 70.1973 487.634 69.74C487.345 69.2733 487.2 68.746 487.2 68.158ZM488.95 63.482C488.95 63.9487 489.109 64.3267 489.426 64.616C489.743 64.9053 490.159 65.05 490.672 65.05C491.176 65.05 491.587 64.9053 491.904 64.616C492.231 64.3173 492.394 63.9393 492.394 63.482C492.394 63.0247 492.231 62.6513 491.904 62.362C491.587 62.0633 491.176 61.914 490.672 61.914C490.159 61.914 489.743 62.0587 489.426 62.348C489.109 62.6373 488.95 63.0153 488.95 63.482ZM499.433 69.964C500.058 69.964 500.567 69.7353 500.959 69.278C501.351 68.8113 501.547 68.2047 501.547 67.458C501.547 66.7207 501.351 66.1233 500.959 65.666C500.567 65.2087 500.058 64.98 499.433 64.98C499.041 64.98 498.677 65.092 498.341 65.316C498.005 65.54 497.739 65.8433 497.543 66.226C497.347 66.5993 497.249 67.01 497.249 67.458C497.249 67.9153 497.347 68.3353 497.543 68.718C497.739 69.1007 498.005 69.404 498.341 69.628C498.677 69.852 499.041 69.964 499.433 69.964ZM495.779 63.776H497.235V65.036C497.487 64.616 497.837 64.3033 498.285 64.098C498.733 63.8833 499.144 63.776 499.517 63.776C500.198 63.776 500.8 63.9347 501.323 64.252C501.855 64.56 502.266 64.994 502.555 65.554C502.854 66.1047 503.003 66.7393 503.003 67.458C503.003 68.1767 502.854 68.8207 502.555 69.39C502.266 69.95 501.855 70.3887 501.323 70.706C500.8 71.014 500.198 71.168 499.517 71.168C499.144 71.168 498.733 71.0607 498.285 70.846C497.837 70.622 497.487 70.3 497.235 69.88V74.234H495.779V63.776ZM508.146 67.444L510.848 71.098H509.042L507.292 68.62L505.556 71.098H503.75L506.41 67.444L503.694 63.776H505.514L507.292 66.324L509.056 63.776H510.876L508.146 67.444Z" fill="#6B6B6B"/>
<rect x="406" y="70" width="8.00004" height="74" transform="rotate(-90 406 70)" fill="#FF0000" fill-opacity="0.1"/>
<rect x="406.5" y="32.5" width="73" height="29" rx="14.5" fill="#F7F7F7"/>
<rect x="406.5" y="32.5" width="73" height="29" rx="14.5" stroke="#121212"/>
<path d="M424.887 52.21C423.898 52.21 423.016 51.986 422.241 51.538C421.476 51.09 420.874 50.4693 420.435 49.676C420.006 48.8733 419.791 47.9633 419.791 46.946C419.791 45.9287 420.006 45.0233 420.435 44.23C420.864 43.4273 421.462 42.802 422.227 42.354C423.002 41.906 423.879 41.682 424.859 41.682C425.559 41.682 426.217 41.8173 426.833 42.088C427.458 42.3587 428.004 42.7367 428.471 43.222L427.519 44.16C427.211 43.7867 426.819 43.4927 426.343 43.278C425.876 43.0633 425.386 42.956 424.873 42.956C424.164 42.956 423.534 43.124 422.983 43.46C422.442 43.7867 422.017 44.2533 421.709 44.86C421.41 45.4573 421.261 46.1527 421.261 46.946C421.261 47.73 421.41 48.4253 421.709 49.032C422.017 49.6293 422.442 50.096 422.983 50.432C423.534 50.768 424.164 50.936 424.873 50.936C425.405 50.936 425.89 50.8333 426.329 50.628C426.777 50.4133 427.155 50.1287 427.463 49.774L428.471 50.67C427.995 51.1647 427.454 51.5473 426.847 51.818C426.25 52.0887 425.596 52.2193 424.887 52.21ZM435.207 48.192C435.207 47.5667 435.058 47.0627 434.759 46.68C434.46 46.288 434.068 46.092 433.583 46.092C433.228 46.092 432.902 46.1947 432.603 46.4C432.304 46.6053 432.066 46.8807 431.889 47.226C431.721 47.5713 431.637 47.9493 431.637 48.36V52.098H430.181V41.794H431.637V45.938C431.852 45.602 432.141 45.3407 432.505 45.154C432.869 44.958 433.233 44.86 433.597 44.86C434.185 44.86 434.712 44.9953 435.179 45.266C435.646 45.5273 436.01 45.9007 436.271 46.386C436.532 46.862 436.663 47.408 436.663 48.024V52.098H435.207V48.192ZM440.001 44.818V52.098H438.545V44.818H440.001ZM438.447 42.438C438.447 42.1953 438.522 41.9993 438.671 41.85C438.83 41.6913 439.031 41.612 439.273 41.612C439.516 41.612 439.712 41.6913 439.861 41.85C440.02 41.9993 440.099 42.1953 440.099 42.438C440.099 42.6713 440.02 42.8673 439.861 43.026C439.712 43.1847 439.516 43.264 439.273 43.264C439.031 43.264 438.83 43.1893 438.671 43.04C438.522 42.8813 438.447 42.6807 438.447 42.438ZM445.655 50.964C446.28 50.964 446.789 50.7353 447.181 50.278C447.573 49.8113 447.769 49.2047 447.769 48.458C447.769 47.7207 447.573 47.1233 447.181 46.666C446.789 46.2087 446.28 45.98 445.655 45.98C445.263 45.98 444.899 46.092 444.563 46.316C444.227 46.54 443.961 46.8433 443.765 47.226C443.569 47.5993 443.471 48.01 443.471 48.458C443.471 48.9153 443.569 49.3353 443.765 49.718C443.961 50.1007 444.227 50.404 444.563 50.628C444.899 50.852 445.263 50.964 445.655 50.964ZM442.001 44.776H443.457V46.036C443.709 45.616 444.059 45.3033 444.507 45.098C444.955 44.8833 445.365 44.776 445.739 44.776C446.42 44.776 447.022 44.9347 447.545 45.252C448.077 45.56 448.487 45.994 448.777 46.554C449.075 47.1047 449.225 47.7393 449.225 48.458C449.225 49.1767 449.075 49.8207 448.777 50.39C448.487 50.95 448.077 51.3887 447.545 51.706C447.022 52.014 446.42 52.168 445.739 52.168C445.365 52.168 444.955 52.0607 444.507 51.846C444.059 51.622 443.709 51.3 443.457 50.88V55.234H442.001V44.776Z" fill="#121212"/>
<path d="M466 48L461 44L456 48" stroke="#121212" stroke-width="1.2" stroke-linejoin="bevel"/>
<g clip-path="url(#clip0_2269_3297)">
<rect x="406" y="70" width="74" height="140" rx="4" fill="white"/>
<path d="M423.552 82.632H420V93.064H418.592V82.632H415.024V81.384H423.552V82.632ZM429.743 88.392C429.668 87.7093 429.444 87.1387 429.071 86.68C428.708 86.2107 428.159 85.976 427.423 85.976C426.751 85.976 426.175 86.2053 425.695 86.664C425.225 87.112 424.943 87.6933 424.847 88.408L429.743 88.392ZM423.455 88.936C423.455 88.1253 423.62 87.4053 423.951 86.776C424.281 86.1467 424.745 85.656 425.343 85.304C425.94 84.952 426.617 84.776 427.375 84.776C428.964 84.776 430.1 85.5227 430.783 87.016C431.007 87.6133 431.119 88.248 431.119 88.92C431.119 89.1013 431.113 89.2507 431.103 89.368C431.092 89.4747 431.087 89.5333 431.087 89.544H424.847C424.953 90.2373 425.241 90.8027 425.711 91.24C426.191 91.6773 426.751 91.896 427.391 91.896C427.903 91.896 428.324 91.816 428.655 91.656C428.996 91.496 429.231 91.3413 429.359 91.192C429.497 91.032 429.62 90.872 429.727 90.712L430.847 91.288C430.601 91.7893 430.18 92.216 429.583 92.568C428.996 92.92 428.26 93.096 427.375 93.096C426.617 93.096 425.94 92.92 425.343 92.568C424.745 92.216 424.281 91.7253 423.951 91.096C423.62 90.4667 423.455 89.7467 423.455 88.936ZM436.666 88.936L439.754 93.064H438.01L435.882 90.12L433.786 93.064H432.026L435.082 88.936L431.994 84.792H433.77L435.882 87.784L438.01 84.792H439.77L436.666 88.936ZM444.231 93.096C443.549 93.096 442.989 92.872 442.551 92.424C442.114 91.976 441.885 91.4 441.863 90.696V86.072H440.487V84.84H441.863V82.648H443.271V84.84H445.047V86.072H443.271V90.6C443.271 90.92 443.362 91.1973 443.543 91.432C443.725 91.6667 443.954 91.784 444.231 91.784C444.391 91.784 444.535 91.7733 444.663 91.752C444.791 91.7307 444.919 91.704 445.047 91.672L445.303 92.968C444.898 93.0533 444.541 93.096 444.231 93.096Z" fill="#121212"/>
<path d="M423.552 112.632H420V123.064H418.592V112.632H415.024V111.384H423.552V112.632ZM429.743 118.392C429.668 117.709 429.444 117.139 429.071 116.68C428.708 116.211 428.159 115.976 427.423 115.976C426.751 115.976 426.175 116.205 425.695 116.664C425.225 117.112 424.943 117.693 424.847 118.408L429.743 118.392ZM423.455 118.936C423.455 118.125 423.62 117.405 423.951 116.776C424.281 116.147 424.745 115.656 425.343 115.304C425.94 114.952 426.617 114.776 427.375 114.776C428.964 114.776 430.1 115.523 430.783 117.016C431.007 117.613 431.119 118.248 431.119 118.92C431.119 119.101 431.113 119.251 431.103 119.368C431.092 119.475 431.087 119.533 431.087 119.544H424.847C424.953 120.237 425.241 120.803 425.711 121.24C426.191 121.677 426.751 121.896 427.391 121.896C427.903 121.896 428.324 121.816 428.655 121.656C428.996 121.496 429.231 121.341 429.359 121.192C429.497 121.032 429.62 120.872 429.727 120.712L430.847 121.288C430.601 121.789 430.18 122.216 429.583 122.568C428.996 122.92 428.26 123.096 427.375 123.096C426.617 123.096 425.94 122.92 425.343 122.568C424.745 122.216 424.281 121.725 423.951 121.096C423.62 120.467 423.455 119.747 423.455 118.936ZM436.666 118.936L439.754 123.064H438.01L435.882 120.12L433.786 123.064H432.026L435.082 118.936L431.994 114.792H433.77L435.882 117.784L438.01 114.792H439.77L436.666 118.936ZM444.231 123.096C443.549 123.096 442.989 122.872 442.551 122.424C442.114 121.976 441.885 121.4 441.863 120.696V116.072H440.487V114.84H441.863V112.648H443.271V114.84H445.047V116.072H443.271V120.6C443.271 120.92 443.362 121.197 443.543 121.432C443.725 121.667 443.954 121.784 444.231 121.784C444.391 121.784 444.535 121.773 444.663 121.752C444.791 121.731 444.919 121.704 445.047 121.672L445.303 122.968C444.898 123.053 444.541 123.096 444.231 123.096Z" fill="#121212"/>
<path d="M423.552 142.632H420V153.064H418.592V142.632H415.024V141.384H423.552V142.632ZM429.743 148.392C429.668 147.709 429.444 147.139 429.071 146.68C428.708 146.211 428.159 145.976 427.423 145.976C426.751 145.976 426.175 146.205 425.695 146.664C425.225 147.112 424.943 147.693 424.847 148.408L429.743 148.392ZM423.455 148.936C423.455 148.125 423.62 147.405 423.951 146.776C424.281 146.147 424.745 145.656 425.343 145.304C425.94 144.952 426.617 144.776 427.375 144.776C428.964 144.776 430.1 145.523 430.783 147.016C431.007 147.613 431.119 148.248 431.119 148.92C431.119 149.101 431.113 149.251 431.103 149.368C431.092 149.475 431.087 149.533 431.087 149.544H424.847C424.953 150.237 425.241 150.803 425.711 151.24C426.191 151.677 426.751 151.896 427.391 151.896C427.903 151.896 428.324 151.816 428.655 151.656C428.996 151.496 429.231 151.341 429.359 151.192C429.497 151.032 429.62 150.872 429.727 150.712L430.847 151.288C430.601 151.789 430.18 152.216 429.583 152.568C428.996 152.92 428.26 153.096 427.375 153.096C426.617 153.096 425.94 152.92 425.343 152.568C424.745 152.216 424.281 151.725 423.951 151.096C423.62 150.467 423.455 149.747 423.455 148.936ZM436.666 148.936L439.754 153.064H438.01L435.882 150.12L433.786 153.064H432.026L435.082 148.936L431.994 144.792H433.77L435.882 147.784L438.01 144.792H439.77L436.666 148.936ZM444.231 153.096C443.549 153.096 442.989 152.872 442.551 152.424C442.114 151.976 441.885 151.4 441.863 150.696V146.072H440.487V144.84H441.863V142.648H443.271V144.84H445.047V146.072H443.271V150.6C443.271 150.92 443.362 151.197 443.543 151.432C443.725 151.667 443.954 151.784 444.231 151.784C444.391 151.784 444.535 151.773 444.663 151.752C444.791 151.731 444.919 151.704 445.047 151.672L445.303 152.968C444.898 153.053 444.541 153.096 444.231 153.096Z" fill="#121212"/>
<path d="M423.552 172.632H420V183.064H418.592V172.632H415.024V171.384H423.552V172.632ZM429.743 178.392C429.668 177.709 429.444 177.139 429.071 176.68C428.708 176.211 428.159 175.976 427.423 175.976C426.751 175.976 426.175 176.205 425.695 176.664C425.225 177.112 424.943 177.693 424.847 178.408L429.743 178.392ZM423.455 178.936C423.455 178.125 423.62 177.405 423.951 176.776C424.281 176.147 424.745 175.656 425.343 175.304C425.94 174.952 426.617 174.776 427.375 174.776C428.964 174.776 430.1 175.523 430.783 177.016C431.007 177.613 431.119 178.248 431.119 178.92C431.119 179.101 431.113 179.251 431.103 179.368C431.092 179.475 431.087 179.533 431.087 179.544H424.847C424.953 180.237 425.241 180.803 425.711 181.24C426.191 181.677 426.751 181.896 427.391 181.896C427.903 181.896 428.324 181.816 428.655 181.656C428.996 181.496 429.231 181.341 429.359 181.192C429.497 181.032 429.62 180.872 429.727 180.712L430.847 181.288C430.601 181.789 430.18 182.216 429.583 182.568C428.996 182.92 428.26 183.096 427.375 183.096C426.617 183.096 425.94 182.92 425.343 182.568C424.745 182.216 424.281 181.725 423.951 181.096C423.62 180.467 423.455 179.747 423.455 178.936ZM436.666 178.936L439.754 183.064H438.01L435.882 180.12L433.786 183.064H432.026L435.082 178.936L431.994 174.792H433.77L435.882 177.784L438.01 174.792H439.77L436.666 178.936ZM444.231 183.096C443.549 183.096 442.989 182.872 442.551 182.424C442.114 181.976 441.885 181.4 441.863 180.696V176.072H440.487V174.84H441.863V172.648H443.271V174.84H445.047V176.072H443.271V180.6C443.271 180.92 443.362 181.197 443.543 181.432C443.725 181.667 443.954 181.784 444.231 181.784C444.391 181.784 444.535 181.773 444.663 181.752C444.791 181.731 444.919 181.704 445.047 181.672L445.303 182.968C444.898 183.053 444.541 183.096 444.231 183.096Z" fill="#121212"/>
<path d="M423.552 202.632H420V213.064H418.592V202.632H415.024V201.384H423.552V202.632ZM429.743 208.392C429.668 207.709 429.444 207.139 429.071 206.68C428.708 206.211 428.159 205.976 427.423 205.976C426.751 205.976 426.175 206.205 425.695 206.664C425.225 207.112 424.943 207.693 424.847 208.408L429.743 208.392ZM423.455 208.936C423.455 208.125 423.62 207.405 423.951 206.776C424.281 206.147 424.745 205.656 425.343 205.304C425.94 204.952 426.617 204.776 427.375 204.776C428.964 204.776 430.1 205.523 430.783 207.016C431.007 207.613 431.119 208.248 431.119 208.92C431.119 209.101 431.113 209.251 431.103 209.368C431.092 209.475 431.087 209.533 431.087 209.544H424.847C424.953 210.237 425.241 210.803 425.711 211.24C426.191 211.677 426.751 211.896 427.391 211.896C427.903 211.896 428.324 211.816 428.655 211.656C428.996 211.496 429.231 211.341 429.359 211.192C429.497 211.032 429.62 210.872 429.727 210.712L430.847 211.288C430.601 211.789 430.18 212.216 429.583 212.568C428.996 212.92 428.26 213.096 427.375 213.096C426.617 213.096 425.94 212.92 425.343 212.568C424.745 212.216 424.281 211.725 423.951 211.096C423.62 210.467 423.455 209.747 423.455 208.936ZM436.666 208.936L439.754 213.064H438.01L435.882 210.12L433.786 213.064H432.026L435.082 208.936L431.994 204.792H433.77L435.882 207.784L438.01 204.792H439.77L436.666 208.936ZM444.231 213.096C443.549 213.096 442.989 212.872 442.551 212.424C442.114 211.976 441.885 211.4 441.863 210.696V206.072H440.487V204.84H441.863V202.648H443.271V204.84H445.047V206.072H443.271V210.6C443.271 210.92 443.362 211.197 443.543 211.432C443.725 211.667 443.954 211.784 444.231 211.784C444.391 211.784 444.535 211.773 444.663 211.752C444.791 211.731 444.919 211.704 445.047 211.672L445.303 212.968C444.898 213.053 444.541 213.096 444.231 213.096Z" fill="#121212"/>
<path d="M476 75C476 74.4477 476.448 74 477 74C477.552 74 478 74.4477 478 75V138C478 138.552 477.552 139 477 139C476.448 139 476 138.552 476 138V75Z" fill="#C2C2C2"/>
</g>
<rect x="406.5" y="70.5" width="73" height="139" rx="3.5" stroke="#368FF7"/>
<defs>
<clipPath id="clip0_2269_3297">
<rect x="406" y="70" width="74" height="140" rx="4" fill="white"/>
</clipPath>
</defs>
</svg>
